X:195
T: Fuqi shuangshuang qu hui men
N: C1687
O: China, Jiangxi, Yujiang
S: IV, 252]
R: Wuge, Chelideng]
M: 2/4
L: 1/16
K: E
eeeefec2 | BGB4e2 | cecBG4
GBcecBG2 | F2F4GF | E2CEF2F2
F3GB2B2 | e2efcBG2 | B2cBG4 | FGFEC4
eeeefec2 | BGB4GF | E2CEF2F2
e3cB4 | GBceB4

